X:50
T:Lannigan's Ball
M:6/8
L:1/8
K:EDor
D|EFE G2 A|B2 A Bcd|DED F2 G|ABA AFD|\
EFE G2 A|B2 A Bcd|edB =cBA|BGE E2 :|
d|e2 f gfg|eag fed|e2 f gfg|fdB B2 d|\
e2 f gfg|eag fed|edB =cBA|BGE E2 :|
